X: 051
T: Coogan's Barn (hornpipe) 
N: 031855
C: BB
N: revised version 12/06
L: 1/8
M: 4/4
Q: 330
R: hornpipe %barndance
K: G
z2|"G"GDGA BcBA |"G"GABG "C"(3EGE "D"D2|"G"GABd "Em"gedB |"Am"ABcA "D"F2 AF |
"G"GDGA BcBA | "G"GABG "C"(3EGE "D"D2 | "G"BcdB "C"cGEG |"D"(3ABA FA "G"G2 :|
Bc |"G"dgfg "Em"edcB | "Am"ceae "A"^ceae |"D"fgfe defg |"Am"afge "D"d2 Bc|
"G"dgfg "Em"edcB|"Am"ceae "A"^ceae|"D"fdAF DFAc|"G"B2 G2 G2 :|
%%%%%%%%%%%%%%%%%%%%%%%%%%%%%%%%%%%%%%%%%%%
